X: 41743
T: Valse Des Jouets
R: waltz
M: 3/4
K: Emajor
|:gf ga gf|ec BG E2|gf ga gf|ec BG E2|
fe fg fe|d2 de dc|Bc (3c/d/c/ B cd|ec BG E2|
gf ga gf|ec BG E2|gf ga gf|ec BG E2|
fe fg fe|d2 de dc|Bc (3c/d/c/ B cd|e4 B2:|
|:eB GB AB|c2 cd ec|dB cd ef|g4 g2|
c'g gc' c'g|a3g fe|dB df ba|g2 gf ed|
cG GG cG|A4 fe|dc BA GF|G2 G2 (3EFG|
AG AB cd|ef g3g|af dB cd|e6:|

